X: 4174
T: Blue Ribbon, The
R: polka
M: 2/4
K: Amixolydian
|:cB/c/ dc/d/|ea cc/d/|ea a/f/e/d/|cA BA|
cB/c/ dc/d/|ea cc/d/|ea a/f/e/d/|cA A2:|
|:aa fe/f/|ag d2|ea a/f/e/d/|cA BA|
aa fe/f/|ag d2|ea a/f/e/d/|cA A2:|

